X:0984
T:A Jig.
M:6/8
L:1/8
Q:3/8=120
I: :: :|
Z:Jack Campin * www.campin.me.uk * 2009
K:A Mixolydian
e|cAA cAA|BGG d2B|cAA cAA|cAA e2c|BBB cAA|BGB d2B|cec d2B|cAA A2:|
e|cAA eAA|BGG d2B|cAA eAA|cAA e2d|cAA eAA|BGG d2B|cec d2B|cAA A2:|
<end>
<start>
